app/img/logo/django-plain.svg

<svg xmlns="http://www.w3.org/2000/svg" viewBox="0 0 128 128"><g fill="#003A2B"><path d="M90.9 61.6l.1-2v-.6h-.8c-1.2 0-2.5.3-3.4.9-1.4.8-2.2 2.3-2.2 4.4 0 3 1.5 4.7 4.1 4.7.8 0 1.3-.1 2.3-.4v-4.3l-.1-2.7zM16.3 64.2c0 3.2 1.6 4.9 4.7 4.9.7 0 1 0 2-.2v-9.5c-1-.2-1.2-.3-2-.3-3 0-4.7 1.9-4.7 5.1zM45.9 68.1c0 1.2.7 1.7 2.3 1.7.9 0 1.8-.1 2.8-.3v-4c-4 .4-5.1 1-5.1 2.6zM108.9 59c-2.3 0-3.7 1.9-3.7 5.2 0 3.3 1.3 5.2 3.7 5.2 2.3 0 3.6-1.9 3.6-5.2 0-3.2-1.3-5.2-3.6-5.2zM126 43.9c0-3.8-3.1-6.9-6.9-6.9h-111.2c-3.8 0-6.9 3.1-6.9 6.9v40.1c0 3.9 3.1 7 6.9 7h111.1c3.8 0 6.9-3.1 6.9-6.9v-40.2zm-115.7 20.4c0-6 4-10 10.2-10 1 0 1.6.1 2.6.3v-8.6h6v27c-3 .6-5.3.8-7.7.8-7.3 0-11.1-3.2-11.1-9.5zm27.7 4.2c0 4.7-.2 7-1.2 9-1 1.9-2.1 3.1-4.7 4.4l-5.5-2.6c2.6-1.2 3.7-2.3 4.5-4 .8-1.7.9-3.7.9-8.8v-11.5h6v13.5zm0-16.5h-6v-6h6v6zm18 21.3c-2 .4-5.8.7-8.3.7-5 0-7.1-1.7-7.1-5.6 0-4.2 3.3-6.1 10.3-6.7v-1.3c0-1.1-.5-1.5-2-1.5-2.2 0-5 .6-7 1.8v-4.6c3-1.2 5.1-1.8 7.8-1.8 3 0 4.8.8 5.7 2.4.5.9.5 2 .5 4.5v12.1zm21 .7h-6v-11.8c0-2.3-1-3.1-3.1-3.1-.8 0-1.9.1-2.9.4v14.5h-6v-18.3c4-.9 6.5-1.3 9.4-1.3 3 0 5.4.7 6.7 2 1.3 1.3 1.9 2.6 1.9 5.6v12zm19.3-11.6.7 5.6v1.7c0 5.1-.6 7.5-1.9 9.4-1.8 2.9-5.1 4.3-9.7 4.3-2.3 0-4.5-.3-6.5-1.2v-5.5c2 1.1 4.2 1.6 6.4 1.6 3.9 0 5.6-1.6 5.6-5.3v-.1c-1 .6-2.4.8-3.9.8-5.2 0-8.5-3.4-8.5-8.8 0-6.7 4.9-10.5 13.5-10.5 2.5 0 4.9.3 7.7.8l-2.3 4.3c-1.6-.3 1.3 0-.7-.2m12.1 14.8c-5.9 0-9.6-3.7-9.6-9.7 0-6.2 3.8-10.1 9.8-10.1 5.9 0 9.5 3.7 9.5 9.8.1 6.1-3.7 10-9.7 10z"/></g></svg>

<?xml version="1.0" encoding="utf-8"?>
<!-- Generator: Adobe Illustrator 21.1.0, SVG Export Plug-In . SVG Version: 6.00 Build 0)  -->
<svg version="1.1" id="Layer_1" xmlns="http://www.w3.org/2000/svg" xmlns:xlink="http://www.w3.org/1999/xlink" x="0px" y="0px"
	 viewBox="0 0 128 128" style="enable-background:new 0 0 128 128;" xml:space="preserve">
<style type="text/css">
	.st0{fill:#D4AA7D;}
</style>
<g>
	<path class="st0" d="M90.9,61.6l0.1-2V59h-0.8c-1.2,0-2.5,0.3-3.4,0.9c-1.4,0.8-2.2,2.3-2.2,4.4c0,3,1.5,4.7,4.1,4.7
		c0.8,0,1.3-0.1,2.3-0.4v-4.3C91,64.3,90.9,61.6,90.9,61.6z M16.3,64.2c0,3.2,1.6,4.9,4.7,4.9c0.7,0,1,0,2-0.2v-9.5
		c-1-0.2-1.2-0.3-2-0.3C18,59.1,16.3,61,16.3,64.2z M45.9,68.1c0,1.2,0.7,1.7,2.3,1.7c0.9,0,1.8-0.1,2.8-0.3v-4
		C47,65.9,45.9,66.5,45.9,68.1z M108.9,59c-2.3,0-3.7,1.9-3.7,5.2c0,3.3,1.3,5.2,3.7,5.2c2.3,0,3.6-1.9,3.6-5.2
		C112.5,61,111.2,59,108.9,59z M126,43.9c0-3.8-3.1-6.9-6.9-6.9H7.9C4.1,37,1,40.1,1,43.9V84c0,3.9,3.1,7,6.9,7H119
		c3.8,0,6.9-3.1,6.9-6.9L126,43.9L126,43.9z M10.3,64.3c0-6,4-10,10.2-10c1,0,1.6,0.1,2.6,0.3V46h6v27c-3,0.6-5.3,0.8-7.7,0.8
		C14.1,73.8,10.3,70.6,10.3,64.3z M38,68.5c0,4.7-0.2,7-1.2,9c-1,1.9-2.1,3.1-4.7,4.4l-5.5-2.6c2.6-1.2,3.7-2.3,4.5-4
		s0.9-3.7,0.9-8.8V55h6V68.5z M38,52h-6v-6h6V52z M56,73.3c-2,0.4-5.8,0.7-8.3,0.7c-5,0-7.1-1.7-7.1-5.6c0-4.2,3.3-6.1,10.3-6.7
		v-1.3c0-1.1-0.5-1.5-2-1.5c-2.2,0-5,0.6-7,1.8v-4.6c3-1.2,5.1-1.8,7.8-1.8c3,0,4.8,0.8,5.7,2.4c0.5,0.9,0.5,2,0.5,4.5L56,73.3
		L56,73.3z M77,74h-6V62.2c0-2.3-1-3.1-3.1-3.1c-0.8,0-1.9,0.1-2.9,0.4V74h-6V55.7c4-0.9,6.5-1.3,9.4-1.3c3,0,5.4,0.7,6.7,2
		C76.4,57.7,77,59,77,62V74z M96.3,62.4L97,68v1.7c0,5.1-0.6,7.5-1.9,9.4c-1.8,2.9-5.1,4.3-9.7,4.3c-2.3,0-4.5-0.3-6.5-1.2v-5.5
		c2,1.1,4.2,1.6,6.4,1.6c3.9,0,5.6-1.6,5.6-5.3v-0.1c-1,0.6-2.4,0.8-3.9,0.8c-5.2,0-8.5-3.4-8.5-8.8c0-6.7,4.9-10.5,13.5-10.5
		c2.5,0,4.9,0.3,7.7,0.8l-2.3,4.3c-1.6-0.3,1.3,0-0.7-0.2 M108.8,74.1c-5.9,0-9.6-3.7-9.6-9.7c0-6.2,3.8-10.1,9.8-10.1
		c5.9,0,9.5,3.7,9.5,9.8C118.6,70.2,114.8,74.1,108.8,74.1z"/>
</g>
</svg>
